modules/feathericon/icons/align-bottom.svg

<?xml version="1.0" encoding="UTF-8"?>
<svg width="24px" height="24px" viewBox="0 0 24 24" version="1.1" xmlns="http://www.w3.org/2000/svg" xmlns:xlink="http://www.w3.org/1999/xlink">
    <!-- Generator: sketchtool 52.2 (67145) - http://www.bohemiancoding.com/sketch -->
    <title>align-bottom</title>
    <desc>Created with sketchtool.</desc>
    <g id="production" stroke="none" stroke-width="1" fill="none" fill-rule="evenodd">
        <g id="align-bottom" fill="#000000">
            <path d="M4.8,19 L19.2,19 C19.6418278,19 20,19.4477153 20,20 C20,20.5522847 19.6418278,21 19.2,21 L4.8,21 C4.3581722,21 4,20.5522847 4,20 C4,19.4477153 4.3581722,19 4.8,19 Z M11,15 C11,16.1045695 10.1045695,17 9,17 C7.8954305,17 7,16.1045695 7,15 L7,5 C7,3.8954305 7.8954305,3 9,3 C10.1045695,3 11,3.8954305 11,5 L11,15 Z M17,15 C17,16.1045695 16.1045695,17 15,17 C13.8954305,17 13,16.1045695 13,15 L13,9 C13,7.8954305 13.8954305,7 15,7 C16.1045695,7 17,7.8954305 17,9 L17,15 Z" id="Shape"></path>
        </g>
    </g>
</svg>

<svg width="24" height="24" viewBox="0 0 24 24" xmlns="http://www.w3.org/2000/svg"><path d="M4.8 19h14.4c.442 0 .8.448.8 1s-.358 1-.8 1H4.8c-.442 0-.8-.448-.8-1s.358-1 .8-1zm6.2-4a2 2 0 1 1-4 0V5a2 2 0 1 1 4 0v10zm6 0a2 2 0 1 1-4 0V9a2 2 0 1 1 4 0v6z" fill="#000" fill-rule="evenodd"/></svg>
